Numix/64/emotes/face-angel.svg

<?xml version="1.0" encoding="UTF-8" standalone="no"?>
<svg
   xmlns:dc="http://purl.org/dc/elements/1.1/"
   xmlns:cc="http://creativecommons.org/ns#"
   xmlns:rdf="http://www.w3.org/1999/02/22-rdf-syntax-ns#"
   xmlns:svg="http://www.w3.org/2000/svg"
   xmlns="http://www.w3.org/2000/svg"
   xmlns:sodipodi="http://sodipodi.sourceforge.net/DTD/sodipodi-0.dtd"
   xmlns:inkscape="http://www.inkscape.org/namespaces/inkscape"
   width="64px"
   height="64px"
   viewBox="0 0 48 48"
   version="1.1"
   id="svg208"
   inkscape:version="0.91 r"
   sodipodi:docname="face-angel.svg">
  <metadata
     id="metadata225">
    <rdf:RDF>
      <cc:Work
         rdf:about="">
        <dc:format>image/svg+xml</dc:format>
        <dc:type
           rdf:resource="http://purl.org/dc/dcmitype/StillImage" />
      </cc:Work>
    </rdf:RDF>
  </metadata>
  <defs
     id="defs223" />
  <sodipodi:namedview
     pagecolor="#ffffff"
     bordercolor="#666666"
     borderopacity="1"
     objecttolerance="10"
     gridtolerance="10"
     guidetolerance="10"
     inkscape:pageopacity="0"
     inkscape:pageshadow="2"
     inkscape:window-width="640"
     inkscape:window-height="480"
     id="namedview221" />
  <g
     id="surface1">
    <path
       style=" stroke:none;fill-rule:nonzero;fill:rgb(100%,85.490196%,36.862745%);fill-opacity:1;"
       d="M 42 24 C 42 32.5625 33.941406 39.5 24 39.5 C 14.058594 39.5 6 32.5625 6 24 C 6 15.441406 14.058594 8.5 24 8.5 C 33.941406 8.5 42 15.441406 42 24 Z M 42 24 "
       id="path211" />
    <path
       style=" stroke:none;fill-rule:nonzero;fill:rgb(62.352941%,56.862745%,35.294118%);fill-opacity:1;"
       d="M 32.796875 9.429688 C 34.285156 10.117188 35.667969 10.988281 36.921875 12.015625 C 38.914062 12.230469 39.992188 12.484375 40 12.75 C 40 13.441406 32.835938 14 24 14 C 15.164062 14 8 13.441406 8 12.75 C 8.011719 12.488281 9.078125 12.230469 11.050781 12.019531 C 12.304688 10.988281 13.691406 10.121094 15.175781 9.429688 C 8.925781 10.078125 5.003906 11.355469 5 12.75 C 5 14.820312 13.507812 16.5 24 16.5 C 34.492188 16.5 43 14.820312 43 12.75 C 42.996094 11.355469 39.066406 10.074219 32.796875 9.429688 Z M 32.796875 9.429688 "
       id="path213" />
    <path
       style=" stroke:none;fill-rule:nonzero;fill:rgb(39.607843%,39.607843%,39.607843%);fill-opacity:1;"
       d="M 18 18 C 16.621094 18 15.5 19.121094 15.5 20.5 C 15.5 20.753906 15.539062 21.003906 15.617188 21.246094 C 15.945312 20.207031 16.910156 19.5 18 19.5 C 19.09375 19.5 20.058594 20.210938 20.382812 21.253906 C 20.460938 21.011719 20.5 20.753906 20.5 20.5 C 20.5 19.121094 19.378906 18 18 18 Z M 18 18 "
       id="path215" />
    <path
       style=" stroke:none;fill-rule:nonzero;fill:rgb(39.607843%,39.607843%,39.607843%);fill-opacity:1;"
       d="M 30 18 C 28.621094 18 27.5 19.121094 27.5 20.5 C 27.5 20.753906 27.539062 21.003906 27.617188 21.246094 C 27.945312 20.207031 28.910156 19.5 30 19.5 C 31.09375 19.5 32.058594 20.210938 32.382812 21.253906 C 32.460938 21.011719 32.5 20.753906 32.5 20.5 C 32.5 19.121094 31.378906 18 30 18 Z M 30 18 "
       id="path217" />
    <path
       style=" stroke:none;fill-rule:nonzero;fill:rgb(39.607843%,39.607843%,39.607843%);fill-opacity:1;"
       d="M 17.097656 28 C 17.667969 30.886719 20.585938 33 24 33 C 27.414062 32.996094 30.324219 30.882812 30.894531 28 L 29.933594 28 C 29.507812 29.71875 26.980469 30.996094 24 31 C 21.019531 30.996094 18.492188 29.71875 18.066406 28 Z M 17.097656 28 "
       id="path219" />
  </g>
</svg>

<svg xmlns="http://www.w3.org/2000/svg" width="64" height="64" viewBox="0 0 48 48">
 <g>
  <path d="m 42 24 c 0 8.563 -8.06 15.5 -18 15.5 c -9.941 0 -18 -6.938 -18 -15.5 c 0 -8.559 8.06 -15.5 18 -15.5 c 9.941 0 18 6.941 18 15.5 m 0 0" style="fill:#ffd95d;fill-opacity:1;stroke:none;fill-rule:nonzero"/>
  <path d="m 32.797 9.43 c 1.488 0.688 2.871 1.559 4.125 2.586 c 1.992 0.215 3.07 0.469 3.078 0.734 c 0 0.691 -7.164 1.25 -16 1.25 c -8.836 0 -16 -0.559 -16 -1.25 c 0.012 -0.262 1.078 -0.52 3.051 -0.73 c 1.254 -1.031 2.641 -1.898 4.125 -2.59 c -6.25 0.648 -10.172 1.926 -10.176 3.32 c 0 2.07 8.508 3.75 19 3.75 c 10.492 0 19 -1.68 19 -3.75 c -0.004 -1.395 -3.934 -2.676 -10.203 -3.32 m 0 0" style="fill:#9e905a;fill-opacity:1;stroke:none;fill-rule:nonzero"/>
  <path d="m 18 18 c -1.379 0 -2.5 1.121 -2.5 2.5 c 0 0.254 0.039 0.504 0.117 0.746 c 0.328 -1.039 1.293 -1.746 2.383 -1.746 c 1.094 0 2.059 0.711 2.383 1.754 c 0.078 -0.242 0.117 -0.5 0.117 -0.754 c 0 -1.379 -1.121 -2.5 -2.5 -2.5 m 0 0" style="fill:#646464;fill-opacity:1;stroke:none;fill-rule:nonzero"/>
  <path d="m 30 18 c -1.379 0 -2.5 1.121 -2.5 2.5 c 0 0.254 0.039 0.504 0.117 0.746 c 0.328 -1.039 1.293 -1.746 2.383 -1.746 c 1.094 0 2.059 0.711 2.383 1.754 c 0.078 -0.242 0.117 -0.5 0.117 -0.754 c 0 -1.379 -1.121 -2.5 -2.5 -2.5 m 0 0" style="fill:#646464;fill-opacity:1;stroke:none;fill-rule:nonzero"/>
  <path d="m 17.1 28 c 0.57 2.887 3.488 5 6.902 5 c 3.414 -0.004 6.324 -2.117 6.895 -5 l -0.961 0 c -0.426 1.719 -2.953 2.996 -5.934 3 c -2.98 -0.004 -5.508 -1.281 -5.934 -3 m -0.969 0" style="fill:#646464;fill-opacity:1;stroke:none;fill-rule:nonzero"/>
 </g>
</svg>
